public/favicon.svg

<?xml version="1.0" encoding="UTF-8"?>
<!--Generator: Apple Native CoreSVG 329-->
<!DOCTYPE svg
        PUBLIC "-//W3C//DTD SVG 1.1//EN"
        "http://www.w3.org/Graphics/SVG/1.1/DTD/svg11.dtd">
<svg version="1.1" xmlns="http://www.w3.org/2000/svg" xmlns:xlink="http://www.w3.org/1999/xlink" viewBox="0 0 3300 2200">
 <!--glyph: "10167E", point size: 100.0, font version: "20.0d10e1", template writer version: "138.0.0"-->
 <style>.monochrome-0 {-sfsymbols-motion-group:1;-sfsymbols-layer-tags:firewall}
  .monochrome-1 {-sfsymbols-motion-group:0;-sfsymbols-layer-tags:firewall}

  .multicolor-0:tintColor {-sfsymbols-motion-group:1;-sfsymbols-layer-tags:firewall}
  .multicolor-1:tintColor {-sfsymbols-motion-group:0;-sfsymbols-layer-tags:firewall}

  .hierarchical-0:secondary {-sfsymbols-motion-group:1;-sfsymbols-layer-tags:firewall}
  .hierarchical-1:primary {-sfsymbols-motion-group:0;-sfsymbols-layer-tags:firewall}

  .SFSymbolsPreviewWireframe {fill:white;opacity:1.0;stroke:white;stroke-width:0.5}
 </style>

 <g id="Regular-S" transform="matrix(1 0 0 1 1407.8 696)">
  <path class="monochrome-0 multicolor-0:tintColor hierarchical-0:secondary SFSymbolsPreviewWireframe" d="M42.041 4.78516C42.5781 4.78516 43.5547 4.58984 44.6289 4.00391C66.5527-8.00781 74.3164-13.4766 74.3164-27.9297L74.3164-57.3242C74.3164-61.3281 72.4121-62.5488 69.3848-63.8672C65.4297-65.5762 49.2676-71.2891 45.3125-72.6562C44.2871-72.998 43.1641-73.2422 42.041-73.2422C40.918-73.2422 39.7461-72.9004 38.7695-72.6562C34.8145-71.6797 18.6523-65.5273 14.6973-63.8672C11.6699-62.5977 9.76562-61.3281 9.76562-57.3242L9.76562-27.9297C9.76562-13.4766 17.5293-8.05664 39.4531 4.00391C40.5273 4.58984 41.5039 4.78516 42.041 4.78516ZM42.041-3.22266C41.4551-3.22266 40.8691-3.36914 39.5508-4.10156C21.9238-14.6484 16.6992-17.7734 16.6992-29.6387L16.6992-56.0059C16.6992-56.8848 16.8945-57.2754 17.6758-57.6172C23.9258-60.0586 34.4727-63.4277 40.7227-65.918C41.2109-66.1133 41.6504-66.1621 42.041-66.1621C42.4316-66.1621 42.8711-66.1133 43.3594-65.918C49.5605-63.4277 59.9609-59.7656 66.3574-57.6172C67.1875-57.3242 67.334-56.8848 67.334-56.0059L67.334-29.6387C67.334-17.7734 62.1094-14.6484 44.4824-4.10156C43.2129-3.36914 42.627-3.22266 42.041-3.22266Z"/>
  <path class="monochrome-1 multicolor-1:tintColor hierarchical-1:primary SFSymbolsPreviewWireframe" d="M45.8496-52.0996L45.8496-48.3887L27.5391-48.3887C26.0254-48.3887 24.707-47.1191 24.707-45.5566C24.707-43.9941 26.0254-42.7246 27.5391-42.7246L45.8496-42.7246L45.8496-38.9648C45.8496-37.207 47.6074-36.6211 48.9746-37.5488L58.4961-43.9453C59.668-44.7266 59.6191-46.3379 58.3984-47.168L48.9746-53.5645C47.6074-54.4434 45.8496-53.8574 45.8496-52.0996ZM25.5859-24.4141L35.1074-18.0176C36.4258-17.0898 38.2324-17.6758 38.2324-19.4336L38.2324-23.1934L56.4941-23.1934C58.0566-23.1934 59.3262-24.4629 59.3262-26.0254C59.3262-27.5879 58.0566-28.8574 56.4941-28.8574L38.2324-28.8574L38.2324-32.5684C38.2324-34.3262 36.4258-34.9121 35.1074-34.0332L25.6836-27.6367C24.4629-26.8066 24.4141-25.1953 25.5859-24.4141Z"/>
 </g>
</svg>

<svg xmlns="http://www.w3.org/2000/svg" viewBox="1400 620 100 100"><style>.SFSymbolsPreviewWireframe{fill:#fff;opacity:1;stroke:#fff;stroke-width:.5}</style><g id="Regular-S"><path class="multicolor-0:tintColor hierarchical-0:secondary SFSymbolsPreviewWireframe" d="M42.041 4.785c.537 0 1.514-.195 2.588-.781C66.553-8.008 74.316-13.476 74.316-27.93v-29.394c0-4.004-1.904-5.225-4.931-6.543-3.955-1.71-20.117-7.422-24.073-8.79-1.025-.341-2.148-.585-3.271-.585s-2.295.342-3.271.586c-3.956.976-20.118 7.129-24.073 8.789-3.027 1.27-4.931 2.539-4.931 6.543v29.394c0 14.453 7.763 19.873 29.687 31.934 1.074.586 2.05.781 2.588.781Zm0-8.008c-.586 0-1.172-.146-2.49-.879-17.627-10.546-22.852-13.671-22.852-25.537v-26.367c0-.879.195-1.27.977-1.611 6.25-2.442 16.797-5.81 23.047-8.301a3.5 3.5 0 0 1 1.318-.244c.39 0 .83.049 1.318.244 6.201 2.49 16.602 6.152 22.998 8.3.83.294.977.733.977 1.612v26.367c0 11.866-5.225 14.99-22.852 25.537-1.27.733-1.855.88-2.441.88Z" style="-sfsymbols-motion-group:1;-sfsymbols-layer-tags:firewall" transform="translate(1407.8 696)"/><path class="multicolor-1:tintColor hierarchical-1:primary SFSymbolsPreviewWireframe" d="M45.85-52.1v3.711H27.54c-1.515 0-2.833 1.27-2.833 2.832 0 1.563 1.318 2.832 2.832 2.832h18.31v3.76c0 1.758 1.758 2.344 3.126 1.416l9.521-6.396c1.172-.782 1.123-2.393-.098-3.223l-9.423-6.397c-1.368-.878-3.125-.292-3.125 1.465ZM25.586-24.414l9.521 6.396c1.319.928 3.125.342 3.125-1.416v-3.76h18.262a2.834 2.834 0 0 0 2.832-2.831 2.834 2.834 0 0 0-2.832-2.832H38.232v-3.711c0-1.758-1.806-2.344-3.125-1.465l-9.423 6.396c-1.221.83-1.27 2.442-.098 3.223Z" style="-sfsymbols-motion-group:0;-sfsymbols-layer-tags:firewall" transform="translate(1407.8 696)"/></g></svg>
